!!!COM: Palestrina, Giovanni Perluigi da
!!!OPR: Missa Sine nomine (1599)
!!!OMD: Credo
!!!OTL: Crucifixus
**kern	**kern	**kern	**kern
*Itenor	*Icalto	*Icalto	*Icant
!Tenor	!Altus 2	!Altus 1	!Cantus
*clefGv2	*clefG2	*clefG2	*clefG2
*k[]	*k[]	*k[]	*k[]
*A:aeo	*A:aeo	*A:aeo	*A:aeo
*M4/2	*M4/2	*M4/2	*M4/2
=113	=113	=113	=113
0r	0r	0d	0r
=114	=114	=114	=114
0r	0r	1f	0r
.	.	1e	.
=115	=115	=115	=115
0r	0r	1d	0a
.	.	2.f	.
.	.	4f	.
=116	=116	=116	=116
0r	0r	2e	1cc
.	.	1a	.
.	.	.	1b
.	.	2g#	.
=117	=117	=117	=117
0r	2.f	1a	1a
.	4f	.	.
.	2e	2.A	2.cc
.	[2a	.	.
.	.	4A	4cc
=118	=118	=118	=118
1r	2a]	2e	2b
.	2g#	2e	1ee
2r	1a	1f	.
2d	.	.	2dd
=119	=119	=119	=119
2c	2r	1e	0ee
2A	2a	.	.
2c	2g	1r	.
2c	2e	.	.
=120	=120	=120	=120
1B	2g	1r	2r
.	2g	.	2dd
1A	2a	2r	2cc
.	[2cc	2f	2a
=121	=121	=121	=121
0r	4cc]	2e	2cc
.	4b	.	.
.	1a	2c	2cc
.	.	2e	1b
.	2g#	2e	.
=122	=122	=122	=122
1r	0a	1f	2a
.	.	.	1dd
[1A	.	1e	.
.	.	.	4cc#
.	.	.	4b
=123	=123	=123	=123
1A]	1e	1.a	1cc#
1d	1f#	.	1dd
.	.	2b	.
=124	=124	=124	=124
1c	1g	2cc	1ee
.	.	4c	.
.	.	4d	.
1A	1a	4e	1cc
.	.	4c	.
.	.	[2f	.
=125	=125	=125	=125
1c	1.g	2f]	1cc
.	.	1e	.
1G	.	.	1b
.	2f	[2d	.
=126	=126	=126	=126
0A	2.e	2d]	[0a
.	.	4c#	.
.	4d	4B	.
.	1e	1c#	.
=127	=127	=127	=127
2r	2.f	1d	0a]
2d	.	.	.
.	4d	.	.
2c	2e	1r	.
2d	2f	.	.
=128	=128	=128	=128
1f	1d	2r	0r
.	.	2a	.
2e	1r	2g	.
[2f	.	2a	.
=129	=129	=129	=129
2f]	0r	1cc	0r
2e	.	.	.
2d	.	2b	.
4c	.	[2cc	.
4d	.	.	.
=130	=130	=130	=130
4e	0r	2cc]	0r
4f	.	.	.
4g	.	2b	.
4e	.	.	.
[1f	.	2a	.
.	.	4f	.
.	.	4g	.
=131	=131	=131	=131
2f]	1r	4a	1cc
.	.	4b	.
2e	.	1cc	.
1d	1f	.	1dd
.	.	2b	.
=132	=132	=132	=132
2.c	1g	0cc	1.ee
4B	.	.	.
[1A	[1a	.	.
.	.	.	4a
.	.	.	4b
=133	=133	=133	=133
1A]	1a]	0r	4cc
.	.	.	4dd
.	.	.	4ee
.	.	.	4cc
1r	2r	.	4dd
.	.	.	4ee
.	4d	.	[2ff
.	4e	.	.
=134	=134	=134	=134
1r	4f	0r	4ff]
.	4g	.	4ee
.	4a	.	4cc
.	4f	.	4dd
1c	2g	.	1ee
.	2a	.	.
=135	=135	=135	=135
1d	4b	1r	2.dd
.	4a	.	.
.	1a	.	.
.	.	.	4cc
1e	.	2r	1b
.	2g#	2b	.
=136	=136	=136	=136
2r	1a	1cc	4a
.	.	.	4b
4A	.	.	4cc
4B	.	.	4dd
4c	1r	2a	1ee
4d	.	.	.
4e	.	2g	.
4c	.	.	.
=137	=137	=137	=137
4d	0r	4f	1a
4e	.	4g	.
2f	.	4a	.
.	.	4f	.
4e	.	4g	1r
4d	.	4f	.
[2d	.	4f	.
.	.	8e	.
.	.	8d	.
=138	=138	=138	=138
2d]	2r	1e	1r
2c#	2e	.	.
1d	2.f	1d	2r
.	.	.	2a
.	4g	.	.
=139	=139	=139	=139
0r	2a	0r	2cc
.	2b	.	2dd
.	2cc	.	2ee
.	2a	.	2ff
=140	=140	=140	=140
0r	2b	1r	2.gg
.	2.cc	.	.
.	.	.	4ff
.	.	2r	4ee
.	4b	.	4dd
.	4a	2d	[2ff
.	4g	.	.
=141	=141	=141	=141
0r	2a	2f	2ff]
.	2e	2g	1ee
.	2f	2a	.
.	2g	2b	2dd
=142	=142	=142	=142
2r	1c	2.cc	1.ee
2A	.	.	.
.	.	4b	.
2c	1r	4a	.
.	.	4g	.
2d	.	[2b	2dd
=143	=143	=143	=143
2e	0r	4b]	1cc
.	.	4a	.
2f	.	1a	.
2d	.	.	1b
2e	.	2g#	.
=144	=144	=144	=144
2A	2r	1a	1a
2a	2cc	.	.
2g	2b	1r	2r
2a	2cc	.	[2ee
=145	=145	=145	=145
1f	2.a	2r	2ee]
.	.	2a	2dd
.	4b	.	.
2e	1cc	2.g	2ee
2f	.	.	[2cc
.	.	4a	.
=146	=146	=146	=146
1d	1r	1f	2cc]
.	.	.	2b
1c	2r	2e	4cc
.	.	.	4dd
.	2cc	2c	4ee
.	.	.	4cc
=147	=147	=147	=147
0r	2b	2g	2dd
.	2cc	2c	2.ee
.	1a	2.cc	.
.	.	.	4dd
.	.	.	4ee
.	.	4a	4ff
=148	=148	=148	=148
0r	2g	2b	4ee
.	.	.	4dd
.	2a	2.cc	4cc
.	.	.	4b
.	1f	.	1a
.	.	4b	.
.	.	[2a	.
=149	=149	=149	=149
1r	1e	2a]	1b
.	.	2g#	.
2r	2r	1a	[1a
2d	2d	.	.
=150	=150	=150	=150
2c	2e	1A	1a]
2A	2f	.	.
2.c	2.e	1r	1r
4c	4e	.	.
=151	=151	=151	=151
2d	2f	2r	2r
2B	2g	2d	2dd
[1A	1a	2e	2cc
.	.	2f	2a
=152	=152	=152	=152
1A]	1r	2.e	2.cc
.	.	4e	4cc
1r	2r	2f	2dd
.	2e	2g	2b
=153	=153	=153	=153
2r	4f	1a	1a
.	4e	.	.
2d	4f	.	.
.	4g	.	.
4f	1a	2r	1r
4e	.	.	.
4f	.	2d	.
4g	.	.	.
=154	=154	=154	=154
1a	1d	4f	2r
.	.	4e	.
.	.	4f	2a
.	.	4g	.
1A	[1e	1a	4cc
.	.	.	4b
.	.	.	4cc
.	.	.	4dd
=155	=155	=155	=155
1c	1e]	2g	2ee
.	.	1a	2cc
1d	1f	.	2a
.	.	4g	2b
.	.	4f	.
=156	=156	=156	=156
0c	2g	2e	[0cc
.	2a	1f	.
.	1g	.	.
.	.	2e	.
=157	=157	=157	=157
0r	2r	2f	1cc_
.	1f	1a	.
.	.	.	1cc_
.	2e	2g	.
=158	=158	=158	=158
2r	1a	1f	0cc]
1f	.	.	.
.	1g	2c	.
2e	.	2c	.
=159	=159	=159	=159
1d	1a	2.f	1r
.	.	4g	.
2c	2e	2a	2r
2d	2f	[2b-	[2ff
=160	=160	=160	=160
2A	1c	4b-]	2ff]
.	.	4a	.
2c	.	1a	2ee
1B-	1d	.	1dd
.	.	2g	.
=161	=161	=161	=161
2A	2e	1a	2cc#
4d	1f	.	2dd
4e	.	.	.
4f	.	1r	2a
4g	.	.	.
[2a	2c	.	2cc
=162	=162	=162	=162
2a]	2d	1r	1b
2g#	2e	.	.
2.a	2A	2r	1a
.	[2a	[2cc	.
8g	.	.	.
8f	.	.	.
=163	=163	=163	=163
1e	2a]	2cc]	2r
.	2g	2b	2ee
1r	1cc	1a	2ff
.	.	.	2ee
=164	=164	=164	=164
0r	2b	2g#	1.ee
.	2cc	2a	.
.	2cc	2e	.
.	[2b	2g	4dd
.	.	.	4cc
=165	=165	=165	=165
0r	4b]	1f	4dd
.	4a	.	4cc
.	1a	.	4b
.	.	.	4a
.	.	[1e	1b
.	2g#	.	.
=166	=166	=166	=166
1A	1a	1e]	2cc
.	.	.	1a
1e	2cc	1r	.
.	2b	.	2g
=167	=167	=167	=167
1f	1a	2r	2cc
.	.	2a	2dd
2e	2g#	2b	1ee
2A	2a	2cc	.
=168	=168	=168	=168
2c	2e	2.cc	2ee
2c	2g	.	2ee
.	.	4b	.
1d	1f	1a	1dd
=169	=169	=169	=169
0A	0e	0a	0cc#
*-	*-	*-	*-
!!!CDT: 1525/^1526/-1594/2/2
!!!OCY: Italia
!!!AGN: Mass (Canonic)
!!!AST: renaissance, vocal
!!!ASW: Antiphon
!!!PWK: Masses, Book 9
!!!RNB: Cadence finals: D
!!!YOR: Le Opere Complete, v. 25, p. 93
!!!YOO: Rome, Italy: Fratelli Scalera
!!!END: 1992//
!!!EED: John Miller
!!!YEC: Copyright 2000, John Miller
!!!YEN: United States of America
!!!YEM: Rights to all derivative electronic formats reserved.
!!!YEM: Refer to licensing agreement for further details.
!!!YEM: This file must be accompanied by the licensing agreement.
!!!YEM: A copy of the licensing agreement may be found at http://www.music-cog.ohio-state.edu/HumdrumDatabases/Palestrina/license.txt
!!!EMD: converted to Humdrum by Bret Aarden
